X: 9213
T: Dan Breen's
R: reel
M: 4/4
K: Bminor
|:f2 ec ABBA|FBBB Bcd/d/e|efec ABBA|FAAA ABce:|
|:f3a fece|fB (3BBB fB (3BBB|f3a fece|(3eee fe a z3:|

